frontend/src/assets/svg/background-hero-block.svg

<svg xmlns="http://www.w3.org/2000/svg" width="1280" height="834" fill="none" viewBox="0 0 1280 834"><path stroke="#000" stroke-width="2" d="M171 547h30m-15-15v30"/><foreignObject width="360.606" height="360.607" x="1062.7" y="476.697"><div xmlns="http://www.w3.org/1999/xhtml" style="backdrop-filter:blur(7.95px);height:100%;width:100%"/></foreignObject><path stroke="#000" stroke-opacity=".05" stroke-width="15" d="m1168 582 150 150m0-150-150 150" data-figma-bg-blur-radius="15.9"/><path stroke="#000" stroke-width="2" d="M972 238h30m-15-15v30M239 592h14m-7-7v14M934 260h14m-7-7v14M240 142.5h53M266.5 116v53M801 624.5h45M823.5 602v45M855 664.5h15m-7.5-7.5v15M1084 708.5h45m-22.5-22.5v45"/><foreignObject width="342.607" height="342.607" x="-101.303" y="586.697"><div xmlns="http://www.w3.org/1999/xhtml" style="backdrop-filter:blur(4px);height:100%;width:100%"/></foreignObject><path stroke="#000" stroke-opacity=".05" stroke-width="15" d="m0 688 140 140m0-140L0 828" data-figma-bg-blur-radius="8"/><foreignObject width="350.606" height="350.607" x="1034.7" y="-130.303"><div xmlns="http://www.w3.org/1999/xhtml" style="backdrop-filter:blur(5.05px);height:100%;width:100%"/></foreignObject><path stroke="#000" stroke-opacity=".05" stroke-width="15" d="m1140-25 140 140m0-140-140 140" data-figma-bg-blur-radius="10.1"/><path stroke="#000" stroke-opacity=".05" stroke-width="22" d="m119 131 240 240m0-240L119 371"/><path stroke="#333" stroke-linecap="round" stroke-miterlimit="16" stroke-opacity=".17" stroke-width="13" d="m1101 176.157-73.5 177.872m73.5-177.872 56.5 194.458M1101 176.157c-7 420.945-90.5 685.752-331.5 599.961-170.051-91.232-135.702-346.471-54.461-294.631 81.249 51.836-30.971 224.829-122.051 220.579-91.083-4.249-113.054-94.267-99.822-174.43 13.237-80.164 65.002-103.647 76.904-66.888 11.907 36.769-132.07 102.61-164.57-10.634"/></svg>

<svg width="1280" height="834" viewBox="0 0 1280 834" fill="none" xmlns="http://www.w3.org/2000/svg">
<path d="M171 547H201M186 532V562" stroke="black" stroke-width="2"/>
<foreignObject x="1062.7" y="476.697" width="360.606" height="360.607"><div xmlns="http://www.w3.org/1999/xhtml" style="backdrop-filter:blur(7.95px);height:100%;width:100%"></div></foreignObject><path data-figma-bg-blur-radius="15.9" d="M1168 582L1318 732M1318 582L1168 732" stroke="black" stroke-opacity="0.05" stroke-width="15"/>
<path d="M972 238H1002M987 223V253" stroke="black" stroke-width="2"/>
<path d="M239 592H253M246 585V599" stroke="black" stroke-width="2"/>
<path d="M934 260H948M941 253V267" stroke="black" stroke-width="2"/>
<path d="M240 142.5H293M266.5 116V169" stroke="black" stroke-width="2"/>
<path d="M801 624.5H846M823.5 602V647" stroke="black" stroke-width="2"/>
<path d="M855 664.5H870M862.5 657V672" stroke="black" stroke-width="2"/>
<path d="M1084 708.5H1129M1106.5 686V731" stroke="black" stroke-width="2"/>
<foreignObject x="-101.303" y="586.697" width="342.607" height="342.607"><div xmlns="http://www.w3.org/1999/xhtml" style="backdrop-filter:blur(4px);height:100%;width:100%"></div></foreignObject><path data-figma-bg-blur-radius="8" d="M0 688L140 828M140 688L0 828" stroke="black" stroke-opacity="0.05" stroke-width="15"/>
<foreignObject x="1034.7" y="-130.303" width="350.606" height="350.607"><div xmlns="http://www.w3.org/1999/xhtml" style="backdrop-filter:blur(5.05px);height:100%;width:100%"></div></foreignObject><path data-figma-bg-blur-radius="10.1" d="M1140 -25L1280 115M1280 -25L1140 115" stroke="black" stroke-opacity="0.05" stroke-width="15"/>
<path d="M119 131L359 371M359 131L119 371" stroke="black" stroke-opacity="0.05" stroke-width="22"/>
<path d="M1101 176.157L1027.5 354.029M1101 176.157L1157.5 370.615M1101 176.157C1094 597.102 1010.5 861.909 769.5 776.118C599.449 684.886 633.798 429.647 715.039 481.487C796.288 533.323 684.068 706.316 592.988 702.066C501.905 697.817 479.934 607.799 493.166 527.636C506.403 447.472 558.168 423.989 570.07 460.748C581.977 497.517 438 563.358 405.5 450.114" stroke="#333333" stroke-opacity="0.17" stroke-width="13" stroke-miterlimit="16" stroke-linecap="round"/>
</svg>
